src/assets/outline/Icon1.svg

<?xml version="1.0" encoding="UTF-8"?>
<svg width="24" height="24" viewBox="0 0 24 24" xmlns="http://www.w3.org/2000/svg">
 <path d="m8 11.75h-3c-0.41 0-0.75-0.34-0.75-0.75v-2c0-2.62 2.13-4.75 4.75-4.75h2c0.41 0 0.75 0.34 0.75 0.75v3c0 0.41-0.34 0.75-0.75 0.75h-2c-0.14 0-0.25 0.11-0.25 0.25v2c0 0.41-0.34 0.75-0.75 0.75zm-2.25-1.5h1.5v-1.25c0-0.96 0.79-1.75 1.75-1.75h1.25v-1.5h-1.25c-1.79 0-3.25 1.46-3.25 3.25v1.25z"/>
 <path d="m15 19.75h-2c-0.41 0-0.75-0.34-0.75-0.75v-3c0-0.41 0.34-0.75 0.75-0.75h2c0.14 0 0.25-0.11 0.25-0.25v-2c0-0.41 0.34-0.75 0.75-0.75h3c0.41 0 0.75 0.34 0.75 0.75v2c0 2.62-2.13 4.75-4.75 4.75zm-1.25-1.5h1.25c1.79 0 3.25-1.46 3.25-3.25v-1.25h-1.5v1.25c0 0.96-0.79 1.75-1.75 1.75h-1.25v1.5z"/>
 <path d="m15 22.75h-6c-5.43 0-7.75-2.32-7.75-7.75v-6c0-5.43 2.32-7.75 7.75-7.75h6c5.43 0 7.75 2.32 7.75 7.75v6c0 5.43-2.32 7.75-7.75 7.75zm-6-20c-4.61 0-6.25 1.64-6.25 6.25v6c0 4.61 1.64 6.25 6.25 6.25h6c4.61 0 6.25-1.64 6.25-6.25v-6c0-4.61-1.64-6.25-6.25-6.25h-6z"/>
</svg>

<svg width="24" height="24" viewBox="0 0 24 24"  xmlns="http://www.w3.org/2000/svg">
<path d="M8 11.75H5C4.59 11.75 4.25 11.41 4.25 11V9C4.25 6.38 6.38 4.25 9 4.25H11C11.41 4.25 11.75 4.59 11.75 5V8C11.75 8.41 11.41 8.75 11 8.75H9C8.86 8.75 8.75 8.86 8.75 9V11C8.75 11.41 8.41 11.75 8 11.75ZM5.75 10.25H7.25V9C7.25 8.04 8.04 7.25 9 7.25H10.25V5.75H9C7.21 5.75 5.75 7.21 5.75 9V10.25Z" />
<path d="M15 19.75H13C12.59 19.75 12.25 19.41 12.25 19V16C12.25 15.59 12.59 15.25 13 15.25H15C15.14 15.25 15.25 15.14 15.25 15V13C15.25 12.59 15.59 12.25 16 12.25H19C19.41 12.25 19.75 12.59 19.75 13V15C19.75 17.62 17.62 19.75 15 19.75ZM13.75 18.25H15C16.79 18.25 18.25 16.79 18.25 15V13.75H16.75V15C16.75 15.96 15.96 16.75 15 16.75H13.75V18.25Z" />
<path d="M15 22.75H9C3.57 22.75 1.25 20.43 1.25 15V9C1.25 3.57 3.57 1.25 9 1.25H15C20.43 1.25 22.75 3.57 22.75 9V15C22.75 20.43 20.43 22.75 15 22.75ZM9 2.75C4.39 2.75 2.75 4.39 2.75 9V15C2.75 19.61 4.39 21.25 9 21.25H15C19.61 21.25 21.25 19.61 21.25 15V9C21.25 4.39 19.61 2.75 15 2.75H9Z" />
</svg>
